icon/lg/vimeo-icon.svg

<?xml version="1.0" encoding="UTF-8" standalone="no"?>
<svg viewBox="0 0 256 223" version="1.1" xmlns="http://www.w3.org/2000/svg" xmlns:xlink="http://www.w3.org/1999/xlink" preserveAspectRatio="xMidYMid" height="1em" width="1em">
  <g>
    <path d="M255.876213,51.662485 C254.737006,76.6303263 237.331453,110.819347 203.667236,154.211627 C168.861251,199.53928 139.413381,222.200547 115.323625,222.200547 C100.406409,222.200547 87.772727,208.402057 77.4609804,180.794839 C70.5694159,155.489076 63.6855314,130.185872 56.7965269,104.880109 C49.1343974,77.2882505 40.9193043,63.4744013 32.1358876,63.4744013 C30.2209952,63.4744013 23.5188719,67.5115474 12.0448778,75.5551193 L0,60.0081389 C12.6336816,48.884867 25.0984021,37.7641552 37.3608813,26.6280832 C54.2109102,12.038549 66.8599519,4.36617944 75.2900864,3.59049443 C95.2146951,1.67304204 107.477174,15.3179302 112.080084,44.5277189 C117.054196,76.0415225 120.494858,95.6435691 122.430231,103.315939 C128.172348,129.461388 134.490469,142.517472 141.394833,142.517472 C146.752948,142.517472 154.80164,134.038697 165.533229,117.081148 C176.254579,100.118478 181.996696,87.2134346 182.772381,78.3480974 C184.298151,63.7099228 178.553473,56.3729154 165.533229,56.3729154 C159.40455,56.3729154 153.086429,57.7860445 146.586547,60.5790226 C159.166468,19.2885158 183.205023,-0.764093703 218.686853,0.380233689 C244.991023,1.15335868 257.391743,18.2465891 255.876213,51.662485" fill="#32B8E8"/>
  </g>
</svg>

<svg width="256" height="223" xmlns="http://www.w3.org/2000/svg" preserveAspectRatio="xMidYMid"><path d="M255.876 51.662c-1.139 24.968-18.545 59.157-52.209 102.55-34.806 45.327-64.254 67.989-88.343 67.989-14.918 0-27.551-13.799-37.863-41.406-6.892-25.306-13.775-50.61-20.664-75.915-7.663-27.592-15.878-41.406-24.661-41.406-1.915 0-8.617 4.038-20.091 12.081L0 60.008a3257.325 3257.325 0 0 0 37.36-33.38C54.21 12.038 66.86 4.366 75.29 3.59c19.925-1.917 32.187 11.728 36.79 40.938 4.974 31.514 8.415 51.116 10.35 58.788 5.742 26.145 12.06 39.201 18.965 39.201 5.358 0 13.407-8.478 24.138-25.436 10.722-16.963 16.464-29.868 17.24-38.733 1.525-14.638-4.22-21.975-17.24-21.975-6.128 0-12.447 1.413-18.946 4.206 12.58-41.29 36.618-61.343 72.1-60.199 26.304.773 38.705 17.867 37.19 51.282" fill="#32B8E8"/></svg>
